X:1
T:Game Of Thrones
T:Game Of Thrones
T:From the HBO series Game of Thrones
T:Music by Ramin Djawadi 
T:Copyright Ⓒ 2011 TL MUSIC PUBLISHING
T:Copyright Ⓒ 2011 TL MUSIC PUBLISHING
T:Copyright Ⓒ 2011 TL MUSIC PUBLISHING
T:Copyright Ⓒ 2011 TL MUSIC PUBLISHING
C:Music by Ramin Djawadi
Z:Copyright Ⓒ 2011 TL MUSIC PUBLISHING
%%score { ( 1 4 ) | ( 2 3 ) }
L:1/8
Q:1/4=114
M:3/4
K:Eb
V:1 treble nm="Piano" snm="Pno."
V:4 treble 
V:2 bass 
V:3 bass 
V:1
"Cm"!mf!"^Moderately fast" G2 C2 EF | G2 C2 EF | G2 C2 EF | G2 C2 EF |"C" G2 C2 =EF | G2 C2 =EF | %6
 G2 C2 =EF | G2 C2 =EF |[K:bass]"Cm" [G,G]6 | C,6 | E,F, G,4 | C,4 E,F, |"Gm" D2 G,2 B,C | %13
 D2 G,2 B,C | D2 G,2 B,C | D2 G,2 B,2 |"Bb" [F,F]6 | B,,6 | E,D, F,4 | B,,6 |"Fm" C2 F,2 A,B, | %21
 C2 F,2 A,B, | C2 F,2 A,B, | C2 F,2 A,2 |[K:treble]"Cm" [G,CG]6 | C6 | EF G4 | C4 EF | %28
"Gm" [G,B,]2 G,2 B,C | [G,B,D]2 G,2 B,C | [G,B,D]2 G,2 B,C | [G,B,D]2 G,2 B,2 |"Bb" [F,B,F]6 | %33
 B,6 | ED F4 | B,6 |"Cm" ED C4 | C2 G,2 A,B, | C2 G,2 A,B, | C2 G,2 C2 |"Cm" [Gceg]6 | [Gc]6 | %42
 [Gc]6 | [Gc]4 ef |"Gm" [GB]2 G2 Bc | D2 G2 Bc | D2 G2 Bc | [DGBd]2 [DG]2 [DGB]2 |"Bb" [FBdf]6 | %49
 [FB]6 | [FB]6 | [FBd]3 [FB]- [FB]2 |"Cm" G2 G2 AB | C2 G2 AB | c2 [Gg]2 [Aa][Bb] | %55
 [cc']2 [Gg]2 AB |"Ab" C6- | C2 E4 |"Eb" B,6- | B,2 E2 G2 |"Fm" AC- C4- | C4 GA |"Cm" [CE]2 C2 EF | %63
 [CEG]2 C2 E2 |"Ab" z2 z2 CD | E2 A,2 DE |"Fm7" E2 A,2 E2 |"G" [=B,DF]2 G,2 _B,2 | %68
"Cm" C2 G,2 A,B, | C2 G,2 A,B, | C2 G,2 A,B, | C2 G,2 B,2 |"Ab" [cc']6- | [cc']4 Bc |"Eb" [Bb]6- | %75
 [Bb]6 |"Fm" A6- | A6 |"Cm" [Gg]6- | [Gg]6 |"Ab" [A,A]6- | [A,A]6 |"Fm" [Ee]6 |"Gm" [Dd]6 | %84
"Cm" C2 G,2 A,B, | C2 G,2 A,B, | C2 G,2 A,B, | C2 G,2 B,2 |"Cm" c'2 g2 ab | c'2 g2 ab | c'2 g2 ab | %91
 !fermata!c'6 |] %92
V:2
 [C,,-G,,-C,]6 | [C,,-G,,-C,]6 | [C,,-G,,-C,]6 | [C,,G,,C,]6 | [C,,-G,,-C,]6 | [C,,-G,,-C,]6 | %6
 [C,,-G,,-C,]6 | [C,,G,,C,]6 | C,,3 C,, C,,C,, | C,,3 C,, C,,C,, | C,,3 C,, C,,C,, | %11
 C,,3 C,, C,,2 | G,,3 G,, G,,G,, | G,,3 G,, G,,G,, | G,,3 G,, G,,G,, | G,,2 G,,2 G,,2 | %16
 B,,,3 B,,, B,,,B,,, | B,,,3 B,,, B,,,B,,, | B,,,3 B,,, B,,,B,,, | B,,,3 B,,, B,,,2 | F,,6 | %21
 F,,3 F,, F,,F,, | F,,3 F,, F,,F,, | F,,2 F,,2 F,,2 | C,,3 C,, C,,C,, | C,,3 C,, C,,C,, | %26
 C,,3 C,, C,,C,, | C,,3 C,, C,,2 | G,,3 G,, G,,G,, | G,,3 G,, G,,G,, | G,,3 G,, G,,G,, | %31
 G,,2 G,,2 G,,2 | B,,,3 B,,, B,,,B,,, | B,,,3 B,,, B,,,B,,, | B,,,3 B,,, B,,,B,,, | %35
 B,,,3 B,,, B,,,2 | C,,3 C,, C,,C,, | C,,3 C,, C,,C,, | C,,3 C,, C,,C,, | C,,2 C,,2 C,,2 | %40
 C,,3 C,, C,,C,, | C,,3 C,, C,,C,, | C,,3 C,, C,,C,, | C,,3 C,, C,,2 | G,,3 G,, G,,G,, | %45
 G,,3 G,, G,,G,, | G,,3 G,, G,,G,, | [G,,D,]2 [G,,D,]2 [G,,D,]2 | B,,3 B,, B,,B,, | %49
 B,,3 B,, B,,B,, | B,,3 B,, B,,B,, | B,,4 B,,2 | C,,3 C,, C,,C,, | C,,3 C,, C,,C,, | %54
 C,,3 C,, C,,C,, | [C,,C,]2 [C,,C,]2 [C,,C,]2 | A,,3 E, A,E, | A,,3 E, A,2 | E,,3 B,, E,B,, | %59
 E,,2 B,,2 G,2 | F,,3 C, F,C, | F,,3 C, F,2 | C,,3 G,, C,G,, | C,,2 G,,2 C,2 | A,,,3 E,, A,,E,, | %65
 A,,,3 E,, A,,2 | F,,3 C, F,C, | G,,2 D,2 G,,2 | C,,3 G,, C,G,, | C,,3 G,, C,G,, | C,,3 G,, C,G,, | %71
 C,,2 G,,2 C,2 | A,,3 E, CE, | A,,3 E, CE, | E,,3 B,, G,B,, | E,,2 B,,2 G,2 | F,,3 C, A,C, | %77
 F,,3 C, A,2 | C,,3 G,, E,G,, | C,,2 G,,2 E,2 | A,,,3 E,, C,E,, | A,,,3 E,, C,2 | F,,3 C, A,C, | %83
 G,,2 D,2 G,,2 | [C,,C,]3 [C,,C,] [C,,C,][C,,C,] | [C,,C,]3 [C,,C,] [C,,C,][C,,C,] | %86
 [C,,C,]3 [C,,C,] [C,,C,][C,,C,] | [C,,C,]2 [C,,C,]2 [C,,C,]2 | [CG]6- | [CG]6- | [CG]6- | %91
 !fermata![CG]6 |] %92
V:3
 x6 | x6 | x6 | x6 | x6 | x6 | x6 | x6 | x6 | x6 | x6 | x6 | D,6- | D,6- | D,6- | D,6 | x6 | x6 | %18
 x6 | x6 | E,D, C,4- | C,6- | C,6- | C,6 | x6 | x6 | x6 | x6 | D,6- | D,6- | D,6- | D,6 | x6 | x6 | %34
 x6 | x6 | x6 | x6 | x6 | x6 | C,6- | C,6- | C,6- | C,6 | D,6- | D,6- | D,6 | x6 | F,6- | F,6- | %50
 F,6- | F,6 | C,6- | C,6- | C,6 | x6 | x6 | x6 | x6 | x6 | x6 | x6 | x6 | x6 | x6 | x6 | x6 | x6 | %68
 x6 | x6 | x6 | x6 | x6 | x6 | x6 | x6 | x6 | x6 | x6 | x6 | x6 | x6 | x6 | x6 | x6 | x6 | x6 | %87
 x6 | x6 | x6 | x6 | x6 |] %92
V:4
 x6 | x6 | x6 | x6 | x6 | x6 | x6 | x6 |[K:bass] x6 | x6 | x6 | x6 | x6 | x6 | x6 | x6 | x6 | x6 | %18
 x6 | x6 | x6 | x6 | x6 | x6 |[K:treble] x6 | x6 | x6 | x6 | D6 | x6 | x6 | x6 | x6 | x6 | x6 | %35
 x6 | G,2 G,2 A,B, | x6 | x6 | x6 | x6 | x6 | ef g4 | x6 | d6- | d6- | d6 | x6 | x6 | x6 | %50
 d3 e- e2 | x6 | c6- | c6 | x6 | x6 | c6- | c4 Bc | B6- | B6 | x6 | x6 | G6 | x6 | A,6- | A,2 x4 | %66
 x6 | x6 | G6- | G6- | G6- | G6 | x6 | x6 | x6 | x6 | ac- c4- | c6 | x6 | x6 | x6 | x6 | x6 | x6 | %84
 G6- | G6- | G6- | G6 | x6 | x6 | x6 | x6 |] %92

